raw-svg/indian-rupee.svg

<svg fill="none" height="24" viewBox="0 0 24 24" width="24" xmlns="http://www.w3.org/2000/svg"><path clip-rule="evenodd" d="m5.24999 3.5c0-.41421.33579-.75.75-.75h12.00001c.4142 0 .75.33579.75.75s-.3358.75-.75.75h-4.9189c.0743.07028.1463.14258.216.2168.7662.81643 1.2246 1.83771 1.3865 2.89431h3.3164c.4142 0 .75.33579.75.75s-.3358.75-.75.75h-3.2836c-.1245 1.14459-.5928 2.26359-1.4193 3.14429-.9867 1.0514-2.4406 1.7168-4.29711 1.7168h-1.06936l7.07567 6.4745c.3056.2796.3266.754.047 1.0596s-.754.3266-1.0596.047l-8.50001-7.7778c-.22827-.2088-.30484-.5364-.1928-.8249.11204-.2884.38969-.4784.6991-.4784h3c1.47701 0 2.52321-.5186 3.20331-1.2432.5472-.5831.8848-1.32907 1.0012-2.11789h-7.20451c-.41421 0-.75-.33579-.75-.75s.33579-.75.75-.75h7.15991c-.146-.6956-.4676-1.34678-.9566-1.86784-.6801-.72469-1.7263-1.24327-3.20331-1.24327h-3c-.41421 0-.75-.33579-.75-.75z" fill="#000" fill-rule="evenodd"/></svg>

<svg width="24" height="24" viewBox="0 0 24 24" fill="none" xmlns="http://www.w3.org/2000/svg">
<path fill-rule="evenodd" clip-rule="evenodd" d="M5.24999 3.5C5.24999 3.08579 5.58578 2.75 5.99999 2.75H18C18.4142 2.75 18.75 3.08579 18.75 3.5C18.75 3.91421 18.4142 4.25 18 4.25H13.0811C13.1554 4.32028 13.2274 4.39258 13.2971 4.4668C14.0633 5.28323 14.5217 6.30451 14.6836 7.36111H18C18.4142 7.36111 18.75 7.6969 18.75 8.11111C18.75 8.52532 18.4142 8.86111 18 8.86111H14.7164C14.5919 10.0057 14.1236 11.1247 13.2971 12.0054C12.3104 13.0568 10.8565 13.7222 8.99999 13.7222H7.93063L15.0063 20.1967C15.3119 20.4763 15.3329 20.9507 15.0533 21.2563C14.7737 21.5619 14.2993 21.5829 13.9937 21.3033L5.49369 13.5255C5.26542 13.3167 5.18885 12.9891 5.30089 12.7006C5.41293 12.4122 5.69058 12.2222 5.99999 12.2222H8.99999C10.477 12.2222 11.5232 11.7036 12.2033 10.979C12.7505 10.3959 13.0881 9.64993 13.2045 8.86111H5.99999C5.58578 8.86111 5.24999 8.52532 5.24999 8.11111C5.24999 7.6969 5.58578 7.36111 5.99999 7.36111H13.1599C13.0139 6.66551 12.6923 6.01433 12.2033 5.49327C11.5232 4.76858 10.477 4.25 8.99999 4.25H5.99999C5.58578 4.25 5.24999 3.91421 5.24999 3.5Z" fill="black"/>
</svg>
